**kern	**silbe
*ICvox	*
=1	=1
*E:	*
*M4/4	*
*clefF4	*
1r	.
=2	=2
1r	.
=3	=3
1r	.
=4	=4
2r	.
4r	.
8r	.
8E	You
=5	=5
8G#	fought
4G#	all
8B	the
4G#	way
8E	John-
8E	-ny
=6	=6
4G#	Reb,
8G#	John-
8F#	-ny
4E	Reb
8r	.
8E	You
=7	=7
8G#	fought
4G#	all
8B	the
4G#	way
8E	John-
8E	-ny
=8	=8
4E	Reb
4r	.
2r	.
=9	=9
1r	.
=10	=10
8G#	Saw
4G#	you
8F#	a
8G#	mar-
8E	-chin'
4E	with
=11	=11
8C#	Ro-
8E	-bert
8F#	E.
8F#	Lee
4E	_
8r	.
8G#	You
=12	=12
8G#	held
8B	your
8B	head
8G#	uh
4B	high
8B	tryin'
8B	to
=13	=13
8c#	win
8B	the
8G#	vic-
8B	-to-
4B	-ry
8r	.
8B	You
=14	=14
8c#	fought
4c#	for
8c#	your
4c#	folks
8d#	but
8c#	you
=15	=15
16B	did-
16B	-'nt
4B	die
8B	in
4E	vain
4r	.
=16	=16
8G#	E-
8F#	-ven
8G#	though
8F#	you
8E	lost
8BB	they
8BB	speak
8BB	high-
=17	=17
8C#	_
8E	-ly
8E	of
8F#	your
16F#	name
8.E	_
8E	'cause
8E	You
=18	=18
8G#	fought
4G#	all
8B	the
4G#	way
8E	John-
8E	-ny
=19	=19
4G#	Reb,
8G#	John-
8F#	-ny
4E	Reb
8r	.
8E	You
=20	=20
8G#	fought
4G#	all
8B	the
4G#	way
8E	John-
8E	-ny
=21	=21
4E	Reb
4r	.
2r	.
=22	=22
2r	.
4r	.
8r	.
8F#	I
=23	=23
8G#	heard
8F#	your
8G#	teeth
4G#	chat-
8F#	-ter
8E	from
8BB	the
=24	=24
8C#	cold
8E	_
4E	out-
4E	-side
4r	.
=25	=25
8G#	Saw
8B	the
16B	bul-
8.G#	-lets
8B	o-
8B	-pen
8B	up
8B	the
=26	=26
4c#	wounds
8G#	in
8B	your
4B	side
8.r	.
16B	I
=27	=27
8c#	saw
8c#	the
4c#	young
4c#	boys
8.r	.
16A	as
=28	=28
8B	they
8B	be-
8B	-gan
8B	to
8E	fall
8E	You
4E	had
=29	=29
4G#	tears
8G#	in
8F#	your
4E	eyes
8BB	'cause
8BB	you
=30	=30
8C#	could-
8E	-n't
8E	help
8E	at
16F#	all
8.E	_
8E	But
8E	you
=31	=31
8G#	fought
4G#	all
8B	the
4G#	way
8E	John-
8E	-ny
=32	=32
4G#	Reb,
8G#	John-
8F#	-ny
4E	Reb
8r	.
8E	You
=33	=33
8G#	fought
4G#	all
8B	the
4G#	way
8E	John-
8E	-ny
=34	=34
4E	Reb
4r	.
2r	.
=35	=35
2r	.
4r	.
8.r	.
16E	I
=36	=36
8G#	saw
4G#	Gen'-
8F#	-ral
4G#	Lee
8BB	raise
8BB	a
=37	=37
8C#	sa-
8E	-ber
8E	in
8F#	his
4E	hand
4r	.
=38	=38
8G#	Heard
8B	the
8B	can-
8B	-nons
4B	roar
8B	as
8B	you
=39	=39
8c#	made
8B	your
4B	last
4B	stand
8.r	.
16B	You
=40	=40
8c#	marched
4c#	in-
8c#	-to
8c#	bat-
8c#	-tle
8d#	with
8c#	the
=41	=41
8B	Grey
4B	and
8B	the
4E	Red
8E	When
8E	the
=42	=42
8G#	can-
8F#	-non
4G#	smoke
4E	cleared
8.BB	took
16BB	days
=43	=43
8E	_
8E	to
8E	count
8F#	the
4E	dead
8E	'Cause
8E	you
=44	=44
8G#	fought
4G#	all
8B	the
4G#	way
8E	John-
8E	-ny
=45	=45
4G#	Reb,
8G#	John-
8F#	-ny
4E	Reb
8r	.
8E	You
=46	=46
8G#	fought
4G#	all
8B	the
4G#	way
8E	John-
8E	-ny
=47	=47
4E	Reb
4r	.
2r	.
=48	=48
2r	.
4r	.
8.r	.
16E	When
=49	=49
8G#	Hon-
4.G#	-est
4G#	Abe
8BB	heard
8BB	the
=50	=50
8C#	news
8E	a-
8E	-bout
8E	your
16F#	fall
8.E	_
8r	.
16r	.
16G#	The
=51	=51
8G#	folks
4B	thought
8B	he'd
4.B	call
8B	a
=52	=52
4c#	great
8B	vic-
8G#	-t'ry
8B	ball
8G#	_
8r	.
8B	But
=53	=53
8c#	he
4c#	asked
8c#	the
8c#	band
8c#	to
8d#	play
8c#	the
=54	=54
4B	song
8G#	Dix-
[8G#	-ie
8G#]	_
8r	.
8r	.
8E	For
=55	=55
8G#	you
4G#	John-
8F#	-ny
4E	Reb
8r	.
8BB	and
=56	=56
8C#	all
8E	that
8E	you
8F#	be-
4E	-lieved
8E	'Cause
8E	you
=57	=57
8G#	fought
4G#	all
8B	the
4G#	way
8E	John-
8E	-ny
=58	=58
4G#	Reb,
8G#	John-
8F#	-ny
4E	Reb
8E	Yeah
8E	you
=59	=59
8G#	fought
4G#	all
8B	the
4G#	way
8E	John-
8E	-ny
=60	=60
4E	Reb
4r	.
4r	.
8r	.
8E	you
=61	=61
8G#	fought
4G#	all
8B	the
4G#	way
8E	John-
8E	-ny
=62	=62
4G#	Reb,
8G#	John-
8F#	-ny
4E	Reb
8r	.
8E	you
=63	=63
8G#	fought
4G#	all
8B	the
4G#	way
8E	John-
8E	-ny
=64	=64
4E	Reb
4r	.
4r	.
8r	.
8E	you
=65	=65
8G#	fought
4G#	all
8B	the
4G#	way
8E	John-
8E	-ny
=66	=66
4G#	Reb,
8G#	John-
8F#	-ny
4E	Reb
4r	.
=67	=67
1r	.
*-	*-
!!!ENC: Nathaniel Condit-Schultz